build/category/NewspaperSolid.svg

<svg xmlns="http://www.w3.org/2000/svg" fill="none" viewBox="0 0 24 24" focusable="false"><path d="M0 0H24V24H0z"/><path fill="#74767B" fill-rule="evenodd" d="M6.70654 3.90381L12.9678 3.90381C13.1919 3.90381 13.4106 3.92725 13.6245 3.97437C13.8047 4.01392 13.9819 4.07056 14.1553 4.1438C14.3288 4.2172 14.4928 4.30501 14.6475 4.40723C14.818 4.51969 14.9771 4.64966 15.1245 4.79712C15.272 4.94458 15.402 5.1036 15.5146 5.27417C15.6165 5.42879 15.7043 5.59285 15.7778 5.76636C15.8511 5.93953 15.9076 6.11646 15.9473 6.29712C15.9941 6.51082 16.0176 6.72974 16.0176 6.95386L16.0176 7.61914L17.9062 7.61914C18.1305 7.61914 18.3496 7.64266 18.5635 7.6897C18.7437 7.72949 18.9209 7.78589 19.0938 7.85913C19.2676 7.93262 19.4316 8.02051 19.5864 8.12256C19.7568 8.23511 19.9155 8.36523 20.063 8.51245C20.2104 8.65991 20.3405 8.81885 20.4531 8.98926C20.5552 9.14404 20.6431 9.30811 20.7163 9.48193C20.7896 9.65503 20.8462 9.83179 20.8857 10.0125C20.9331 10.2261 20.9565 10.4451 20.9565 10.6692L20.9565 16.2729C20.9565 16.6865 20.8765 17.0823 20.7163 17.4604C20.562 17.8254 20.3442 18.1484 20.063 18.4297C19.7817 18.7109 19.459 18.9287 19.0938 19.083C18.749 19.2288 18.3896 19.3081 18.0156 19.321L6.70703 19.323C6.48275 19.323 6.26383 19.2996 6.05029 19.2527C5.86995 19.2131 5.69271 19.1565 5.51953 19.0833C5.1543 18.9287 4.83154 18.7109 4.55029 18.4297C4.40283 18.2822 4.27246 18.1233 4.16016 17.9529C4.05794 17.7983 3.97021 17.6341 3.89697 17.4604C3.82373 17.2873 3.76725 17.1104 3.72754 16.9299C3.68034 16.7162 3.65674 16.4973 3.65674 16.2732L3.65674 6.95386C3.65674 6.72974 3.68018 6.51074 3.72705 6.29688C3.76676 6.11637 3.82324 5.93953 3.89648 5.76636C3.97005 5.59269 4.05794 5.42855 4.16016 5.27393C4.27279 5.10352 4.40283 4.94458 4.55029 4.79712C4.69743 4.64966 4.85628 4.51969 5.02686 4.40723C5.18148 4.30518 5.3457 4.2172 5.51953 4.1438C5.69238 4.07056 5.86914 4.01408 6.0498 3.97437C6.26367 3.92733 6.48258 3.90381 6.70654 3.90381ZM11.894 8.9187L7.74609 8.9187C7.38232 8.9187 7.09619 8.63281 7.09619 8.2688C7.09619 7.90479 7.38232 7.61865 7.74609 7.61865L11.894 7.61865C12.2583 7.61865 12.5444 7.90479 12.5444 8.2688C12.5444 8.63281 12.2583 8.9187 11.894 8.9187ZM17.7739 18.0232L17.9062 18.0229C18.0426 18.0229 18.1755 18.0079 18.3047 17.9778C18.401 17.9555 18.4953 17.9248 18.5874 17.8857C18.7969 17.7971 18.9819 17.6721 19.144 17.5105C19.3057 17.3489 19.4307 17.1633 19.519 16.9541C19.6108 16.7375 19.6562 16.5107 19.6562 16.2729L19.6562 10.6692C19.6562 10.533 19.6413 10.4001 19.6113 10.2708C19.5889 10.1747 19.5581 10.0806 19.519 9.98828C19.4787 9.89258 19.4307 9.80192 19.375 9.71631C19.3091 9.61475 19.2314 9.51953 19.144 9.43188C19.0562 9.34424 18.9614 9.26709 18.8599 9.20093C18.7739 9.14526 18.6831 9.09692 18.5874 9.0564C18.4953 9.0175 18.4012 8.98682 18.3052 8.96436C18.1763 8.93433 18.043 8.91919 17.9062 8.91919L16.0176 8.91919L16.0176 16.2732C16.0176 16.5107 16.0635 16.7378 16.1548 16.9541C16.1953 17.0498 16.2437 17.1406 16.2993 17.2263C16.3657 17.3281 16.4424 17.4229 16.5303 17.5105C16.6919 17.6721 16.8774 17.7974 17.0869 17.8857C17.3032 17.9773 17.5366 18.0232 17.7739 18.0232ZM7.74609 12.1653L10.4697 12.1653C10.8335 12.1653 11.1196 11.8794 11.1196 11.5154C11.1196 11.1514 10.8335 10.8652 10.4697 10.8652L7.74609 10.8652C7.38184 10.8652 7.09619 11.1514 7.09619 11.5154C7.09619 11.8794 7.38184 12.1653 7.74609 12.1653ZM7.74609 15.4119L11.894 15.4119C12.2583 15.4119 12.5444 15.126 12.5444 14.762C12.5444 14.3979 12.2583 14.1118 11.894 14.1118L7.74609 14.1118C7.38232 14.1118 7.09619 14.3979 7.09619 14.762C7.09619 15.126 7.38232 15.4119 7.74609 15.4119Z"/></svg>

<svg xmlns="http://www.w3.org/2000/svg" fill="none" viewBox="0 0 24 24" focusable="false"><path fill="#74767B" fill-rule="evenodd" d="M6.7 3.9h6.26c.23 0 .45.02.66.07.18.04.36.1.53.17s.34.16.49.26q.255.165.48.39t.39.48c.1.15.19.32.26.49.08.17.13.35.17.53.05.22.07.43.07.66v.66h1.89c.23 0 .44.03.66.07.18.04.36.1.53.17.17.08.34.17.49.27q.255.165.48.39c.15.14.28.3.39.47a3.272 3.272 0 0 1 .43 1.03c.05.21.07.43.07.65v5.61c0 .41-.08.81-.24 1.19-.15.36-.37.68-.65.96-.28.29-.61.5-.97.66q-.525.21-1.08.24H6.7c-.22 0-.44-.03-.65-.07-.19-.04-.36-.1-.54-.17-.36-.16-.68-.37-.96-.66-.15-.14-.28-.3-.39-.47a3.4 3.4 0 0 1-.27-.49c-.07-.18-.13-.35-.17-.54-.04-.21-.07-.43-.07-.65V6.95c0-.23.03-.44.07-.66.04-.18.1-.36.17-.53s.16-.34.27-.49q.165-.255.39-.48c.14-.15.3-.28.47-.39.16-.1.32-.19.49-.26A2.962 2.962 0 0 1 6.7 3.9m5.19 5.01H7.74c-.36 0-.65-.28-.65-.65 0-.36.29-.65.65-.65h4.15c.36 0 .65.29.65.65 0 .37-.29.65-.65.65m5.88 9.11h.13c.14 0 .27-.02.4-.05a1.763 1.763 0 0 0 .84-.46c.16-.17.29-.35.37-.56.1-.22.14-.44.14-.68v-5.61c0-.13-.01-.26-.04-.39-.03-.1-.06-.19-.1-.29a1.56 1.56 0 0 0-.37-.55c-.09-.09-.18-.17-.29-.23q-.12-.09-.27-.15c-.09-.04-.18-.07-.28-.09-.13-.03-.26-.05-.4-.05h-1.89v7.36c0 .24.05.46.14.68.04.09.09.19.14.27.07.1.15.2.24.29.16.16.34.28.55.37.22.09.45.14.69.14M7.74 12.16h2.72c.37 0 .65-.29.65-.65s-.28-.65-.65-.65H7.74c-.36 0-.65.29-.65.65s.29.65.65.65m0 3.25h4.15c.36 0 .65-.29.65-.65 0-.37-.29-.65-.65-.65H7.74c-.36 0-.65.28-.65.65 0 .36.29.65.65.65"/></svg>
